X:1
L:1/16
M:2/4
K:G
 DGGA B2B2 | cBce edd2 | DGGA B2Bd | dcAF AGG2 :: gfge d2dB | cBce edc2 | gfge eddB |1 
 dcAF AGG2 :|2 e4 f2 g4 g4 ||
